X:1
T:Los Angeles, 88.6 D
T:Los Angeles, 88.6 D
T:David Stanley Smith (1878-?)
T:Public Domain Courtesy of the Cyber Hymnal™
C:David Stanley Smith (1878-?)
Z:Public Domain
Z:Courtesy of the Cyber Hymnal™
%%score ( 1 2 ) ( 3 4 )
L:1/8
Q:1/4=115
M:4/4
K:G
V:1 treble 
V:2 treble 
V:3 bass 
V:4 bass 
V:1
 [DG]2 | [DG]3 [GB] [GB]2 [FA]2 x | G3 [Bd] [Bd]2 [Ac]2 x | [GB]2 [DG]2 [EG]2 [EA]2 | %4
 [DF]3 [^CE] [DF]2 (DD) | [B,G]2 [EG]2 [FB]2 [EA]2 | [^DB]6 [DF]2 | [EF]3 [EF] [^DF]2 [FB]2 | %8
 [FB]3 [F^A] [FB]2 [^DF]2 x | [EG]3 [^DF] [EG]2 [EB]2 | d3 z c [GB]2 G2 | %11
 [Ge]2 [=Fd]2 ([Ec][DB]) [CA]2 | [B,G]6 |] %13
V:2
 x2 | x9 | G3 x6 | x8 | x6 DD | x8 | x8 | x8 | x9 | x8 | D2 (F2 x G2) x2 | x8 | x6 |] %13
V:3
 [G,B,]2 | B,3 z D [D,D]2 [D,C]2 | B,3 z D [E,D]2 [F,D]2 | [G,D]2 [B,,D]2 [C,C]2 [^C,A,]2 | %4
 [D,A,]3 [A,,A,] [D,A,]2 ([D,F,][D,F,]) | [E,G,]2 [E,B,]2 [D,B,]2 [C,E,]2 | [B,,F,]6 [B,,B,]2 | %7
 [F,,^A,]2 [^A,,^C]2 [B,,B,]2 [^D,B,]2 | ^C3 z C [^D,B,]2 [B,,B,]2 | %9
 [E,B,]3 [B,,B,] [E,B,]2 [E,G,]2 | [F,A,]2 [D,D]2 [G,D]2 G,2 x | [C,C]2 [G,,B,]2 [C,G,]2 [D,F,]2 | %12
 [G,,G,]6 |] %13
V:4
 x2 | G,2 D,2 x5 | G,2 D,2 x5 | x8 | x8 | x8 | x8 | x8 | F,2 E,2 x5 | x8 | x6 G,2 x | x8 | x6 |] %13

